X:72
T:Hand Me Down the Tackle                                                                           
M:4/4                                                                                               
L:1/8                                                                                               
K:D                                                                                                 
dD D2 FDFA|dfaf gfec|dD D2 FDFA|BGEF GABc|                                                          
dD D2 FDFA|dfaf gfec|d2 cd BdAF|GBEF GABc :|                                                        
d2 fd Adfd|d2 fd BAFA|dafd Adfd|BGEF GABc|                                                          
d2 fd Adfd|(3Bcd ef g3 ^g|afge fded|BGEF GABc|                                                      
d2 fd Adfd|d2 fd BAFA|dafd Adfd|BGEF GABd|                                                          
a2 (3ba^g afdf|gfed cbag|faec dBAF|GBEF GABc |>|
